assets/img/icons/duotone-icons/Shopping/ATM.svg

<svg width="24" height="24" viewBox="0 0 24 24" xmlns="http://www.w3.org/2000/svg"><g fill="none" fill-rule="evenodd"><path d="M0 0h24v24H0z"/><rect fill="#335EEA" opacity=".3" x="2" y="4" width="20" height="5" rx="1"/><path d="M5 7h3v14H7a2 2 0 01-2-2V7zm14 0v12a2 2 0 01-2 2h-6V7h8z" fill="#335EEA"/></g></svg>

<?xml version="1.0" encoding="UTF-8"?>
<svg width="24px" height="24px" viewBox="0 0 24 24" version="1.1" xmlns="http://www.w3.org/2000/svg" xmlns:xlink="http://www.w3.org/1999/xlink">
    <!-- Generator: Sketch 52.2 (67145) - http://www.bohemiancoding.com/sketch -->
    <title>Stockholm-icons / Shopping / ATM</title>
    <desc>Created with Sketch.</desc>
    <g id="Stockholm-icons-/-Shopping-/-ATM" stroke="none" stroke-width="1" fill="none" fill-rule="evenodd">
        <rect id="bound" x="0" y="0" width="24" height="24"></rect>
        <rect id="Rectangle-2" fill="#335EEA" opacity="0.3" x="2" y="4" width="20" height="5" rx="1"></rect>
        <path d="M5,7 L8,7 L8,21 L7,21 C5.8954305,21 5,20.1045695 5,19 L5,7 Z M19,7 L19,19 C19,20.1045695 18.1045695,21 17,21 L11,21 L11,7 L19,7 Z" id="Combined-Shape" fill="#335EEA"></path>
    </g>
</svg>
